;[gain=2.0 name=hyd3_01_l duration=300s fade=5s]
#opll_mode 1
#tempo 150
#title { "[Lch] HYDLIDE 3 - The Space Memories (Main Theme)"}

;#psg_tune { 3323, 3137, 2961, 2794, 2638, 2490, 2350, 2218, 2093, 1976, 1865, 1760 }
#psg_tune { 3332, 3144, 2968, 2800, 2644, 2496, 2356, 2224, 2100, 1980, 1868, 1764 }
;#opll_tune { 177, 188, 199, 211, 224, 237, 251, 266, 282, 299, 316, 335 }
#opll_tune { 176, 186, 197, 210, 222, 235, 249, 264, 280, 297, 314, 332 }

@v21 = { ; HH
;       TL FB
         0, 5,
; AR DR SL RR KL MT AM VB EG KR DT
  15, 0, 0, 0, 0,15, 0, 0, 0, 0, 0,
  15,14, 4,10, 3,15, 0, 0, 0, 1, 0 }

@v22 = { ; SD
;       TL FB
         0, 7,
; AR DR SL RR KL MT AM VB EG KR DT
  15, 0, 0, 0, 0,15, 0, 0, 0, 0, 0,
  15,12, 3, 7, 0, 2, 0, 0, 0, 0, 0 }
  
@v23 = { ; BD
;       TL FB
         0, 0,
; AR DR SL RR KL MT AM VB EG KR DT
  15,12, 8, 0, 0, 2, 0, 0, 0, 0, 0,
  12, 7, 2, 5, 0, 0, 0, 0, 0, 1, 0 }
  
#alloc { 1=1500,2=1500,3=1500 }

123 v13

9 r24
9 @0o7
9 v0c2d4d+4f4.d+16d16c2
9 d6<b6g3^3>>d6<b6g%110r16.
9 c2d4d+4f4.d+16d16c2
9 d6<b6g3^3>>d6<b6g%110r24^96<
9 [ v11
9 g1a1b1b1
9 g1a1b1b1
9 g1a1b1b1
9 g1a1>v0d6<b6g6 v11f6d6<b6 r4<v12g+2r4
9 @1>v9
9 g1f1d+1g2g2
9 g1f1d+2f2g2g2
9 g4.g2^8 f4.f2^8 d+4.   d+2^8 g2f2
9 g4.g2^8 f4.f2^8 d+4.f2^8 g2g4 v0g+16g16f+16g16
9 f2g4g+4a+4.g+16g16f2
9 g6d+6c3^3 >g6d+6c3^3
9 <v11f2g4g+4 >d4.d+16f16f8d+8d8f8
9 g6d+6c6>v0g6d+6c6<
9 g6d+6c6<v11g6d+6c6
9 g4.g+4.b4>c4.d4.d+4
9 g1&g1
9 c4.c4.d16v10d+16d16c16<
9 v11b1>c2.r4 @0>v0c1&c1&c1<
9 ]0

A @0o7v10\-1
A c2d4d+4f4.d+16d16c2
A d6<b6g3^3>>d6<b6g%110r16.
A v11c2d4d+4f4.d+16d16c2
A d6<b6g3^3>>d6<b6g%110r16.<
A [ v10
A d+1d+1d1d1
A d+1d+1d1d1
A d+1d+1d1d1
A d+1d+1
A v0b6g6d6
A v10b6g6f6 
A r4v12d2r4
A @1v9<
A d+1d1c1c2d2
A d+1d1c2c2c2d2
A d+4.d+2^8 d4.d2^8 c4.c2^8 c2d2
A d+4.d+2^8 d4.d2^8 c4.d2^8 d+2e4 r12g+16g16f+16g16
A f2g4g+4a+4.g+16g16f2
A g6d+6c3^3 >g6d+6c3^3
A <f2g4g+4 >d4.d+16f16f8d+8d8f8
A g6d+6c12>v0d+6c6<v9g6
A d+6c6<g6d+6c6<g8^32r16.
A >g4.g+4.b4>c4.d4.d+6
A c16>v0c16<c16>c16<  v9d16>c16<d16>c16<
A d+16>v0c16<v9d+16>v0c16<f16>c16<v9f16>c16<
A g16>c16<g16>c16< g+16>v0c16<g+16>c16<
A a16>c16<a16>c16< v9b16>v0c16<v9b16>c16
A r12<c4.c4.d16d+16d16c16<
A v9b%176v10g2.r4@0>v12c1&c1&c1
A ]0


B r12
B @0o7v8\-1
B c2d4d+4f4.d+16d16c2
B d6<b6g3^3>>d6<b6g%110r16.
B c2d4d+4f4. d+16d16c2
B d6<b6g3^3>>d6<b6g8^32r24^96
B o3
B @21v0c16c16@22v15c4
B [0 o3 
B [@21v0c16c16c16c16@22v15c16@21v0c16c16c16]30
B v0c4@22v15c4@21v14c4c4
B [@21v0c4.c4c8@22v15c4]8
B @21
B [v0c8v0c8c8v0c8v0c8c8@22v15c8@21v0c8]7
B c8c8@22v15c8@21v0c8@22v15c8c8c16c16c16c16
B [@21v0c16c16c16c16@22v15c16@21v0c16c16c16]28
B [@21v0c8c8c8c8|c8c8@22v15c8@23v14c8]4 @22v14c16c16c16c16c16c16c16c16
B ]0

1 @0
1 [ o6 l16
1 c16r16g16r16  d+16r16g16r16 
1 a+16r16g16r16 d+16r16g16r16
1 f16r16a16r16  d+16r16a16r16>
1 c16r16<a16r16 f16r16d+16r16
1 <b16r16>g16r16 f16r16g16r16
1 d16r16g16r16 f16r16g16r16
1 <b16r16>g16r16 f16r16g16r16 
1 d16r16g16r16 f16r16g16r16
1 @1 ]

1 [ o5 l12
1 @2c12@3c12@4c3 @2d12@3d12@4d12 @2d+12@3d+12@4d+12 @2f12@3f12@4f6^24 @2d+16d16 c12@3c12@4c3 
1 @2d12@3d12 <@2b12@3b12 @2g12@3g12
1 @1<c_<g+12@5g+_f+24@1>c_<g+12@5g+_f+24@1>g_d+12@5d_<a12^24.r48>>>>
1 @2d12@3d12 <@2b12@3b12 @2g12@3g12 
1 <<@1g_e16g_e16g_e16g_e16c_<a16>c_<a16>c_<a16>c_<a16>>>
1 @2c12@3c12@4c3
1 @2d12@3d12@4d12
1 @2d+12@3d+12@4d+12
1 @2f12@3f12@4f6^24
1 @2d+16d16c12@3c12@4c3
1 @2d12@3d12
1 <@2b12@3b12
1 @2g12@3g12
1 @1<c_<g+12@5g+_f+24@1>c_<g+12@5g+_f+24@1>g_d+12@5d_<a12^24.r48>>>>
1 @2d12@3d12
1 <@2b12@3b12
1 @2g12@3g12
1 @1<<g_e16g_e16g_e16g_e16c_<a16>c_<a16>c_<a16>c_<a16>>>
1 @2c12@3c12@4c3
1 @2d12@3d12@4d12
1 @2d+12@3d+12@4d+12
1 @2f12@3f12@4f6^24
1 @2d+16d16c12@3c12@4c3
1 @2d12@3d12
1 <@2b12@3b12
1 @2g12@3g12
1 @1<c_<g+12@5g+_f+24@1>c_<g+12@5g+_f+24@1>g_d+12@5d_<a12^24.r48>>>>
1 @2d12@3d12 <@2b12@3b12 @2g12@3g12
1 @1<<g_e16g_e16g_e16g_e16c_<a16>c_<a16>c_<a16>c_<a16>>>
1 @2c12@3c12@4c3 @2d12@3d12@4d12 @2d+12@3d+12@4d+12 @2f12@3f12@4f6^24
1 @2d+16d16c12@3c12@4c3 @2d12@3d12 <@2b12@3b12 @2g12@3g12
1 @1<<g_f16 g_f16 g_f16 g_f16 e_d16 e_d16 e_d16 e_d16 r4>
1 @2b12@3b12@4b3^6. 

1 >
1 @2d+12@3d+12@4d+6^24 @2f12@3f12@4f6^24 @2g12@3g12@4g12
1 @2d12@3d12@4d6^24 @2d+12@3d+12@4d+6^24 @2d12@3d12@4d12 @2c12@3c12@4c6^24
1 @2d+12@3d+12@4d+6^24 @2f12@3f12@4f12 @2g12@3g12@4g6^24 @2f16d+16 d12@3d12@4d3
1 @2d+12@3d+12@4d+6^24 @2d12@3d12@4d6^24 @2c12@3c12@4c12 @2f12@3f12@4f6^24 
1 @2d+12@3d+12@4d+6^24 @2d12@3d12@4d12 @2g12@3g12@4g6^24 @2d+12@3d+12@4d+6^24
1 @2f12@3f12 @0f48@1e32d+32 @2d12@3d12@4d3^3. 

1 @2g12@3g12@4g6^24 @2f12@3f12@4f6^24 @2d+12@3d+24
1 <c_<g+12@6g32&f+96>>
1 @2d12@3d12@4d6^24 @2d+12@3d+12@4d+6^24 @2d12@3d24
1 <c_<g+12@6g32&f+96>>
1 @2c12@3c12@4c6^24 @2d+12@3d+12@4d+6^24 @2f12@3f24
1 <c_<g+12@6g32&f+96>>
1 @2g12@3g12@4g6^24@2f16d+16 d12@3d12@4d6^24@3
1 <c_<g+12@6g32&f+96>>
1 @2d+12@3d+12@4d+6^24 @2d12@3d12@4d6^24 @2c12@3c24
1 <c_<g+12@6g32&f+96>>
1 @2f12@3f12@4f6^24 @2d+12@3d+12@4d+6^24 @2d12@3d24
1 <c_<g+12@6g32&f+96>>
1 @2c12@3c12@4c3 @2d+12@3d+12@4d+12 @2f12@3f24
1 <c_<g+12@6g32&f+96>>
1 @2g12@3g12@4g3^3.
 
1 >
1 [@0c12@7c24@0c12@7c24@0c12@7c24@0c12@7c24]2
1 [@0d12@7d24@0d12@7d24@0d12@7d24@0d12@7d24]2
1 [@0d+12@7d+24@0d+12@7d+24@0d+12@7d+24@0d+12@7d+24]4
1 <
1 [@0c12@7c24@0c12@7c24@0c12@7c24@0c12@7c24]2
1 >
1 [@0d12@7d24@0d12@7d24@0d12@7d24@0d12@7d24]2
1 [@0d+12@7d+24@0d+12@7d+24@0d+12@7d+24@0d+12@7d+24]6
1 [@0d12@7d24@0d12@7d24@0d12@7d24@0d12@7d24]2
1 @1
1 c16<b16a16b16> c16d16d+16d16
1 d+16d16c16d16 d+16f16g16f16
1 g16f16d+16f16 g16g+16a+16g+16
1 g16g+16a+16g+16 g16f16d+16d16<
1 g+16>c16d+16g16 c16d+16g16g+16
1 d+16g16g+16>c16< g16g+16>c16d+16<<
1 g16b16>d16f16< b16>d16f16g16
1 d16f16g16b16 f16g16b16>d16
1 << 
1 @2g12@3g12@4g6^24
1 @2<a+12@3a+12@4a+3^12.
1 @2a12@3a12@4a6^24
1 @2g+12@3g+12@4g+3^12.
1 @2g12@3g12@4g6^24
1 @2a+12@3a+12@4a+3^12.
1 @2a12@3a12@4a6^24
1 @2g+12@3g+12@4g+4...
1 ]0

2 r12
2 @8
2 [ o6 l16
2 c16r16g16r16d+16r16g16r16a+16r16
2 g16r16d+16r16g16r16f16r16a16r16d+16
2 r16a16r16>c16r16<a16r16f16r16d+16
2 r16<b16r16>g16r16f16r16g16r16d16r16
2 g16r16f16r16g16r16<b16r16>g16r16f16
2 r16g16r16d16r16g16r16f16r16g24r12
2 @0 ]

2 [ o5 l12 
2 @3c12@6c12@7c3
2 @3d12@6d12@7d12@3d+12@6d+12@7d+12
2 @3f12@6f12@7f6^24@3d+16d16
2 c12@6c12@7c3
2 @3d12@6d12@3<b12@6b12@3g12@6g12
2 @7g2
2 @3>>d12@6d12@3<b12@6b12@3g12@6g12
2 h16,2,2,1@7g3^12r12hf@3c12@6c12@7c3
2 @3d12@6d12@7d12
2 @3d+12@6d+12@7d+12@3f12@6f12@7f6^24
2 @3d+16d16c12@6c12@7c3
2 @3d12@6d12@3<b12
2 @6b12@3g12@6g12@7g2
2 @3>>d12@6d12@3<b12
2 @6b12@3g12@6g12h16,2,2,1@7g3^12r12
2 hf@3c12@6c12@7c3
2 @3d12@6d12@7d12@3d+12@6d+12@7d+12
2 @3f12@6f12@7f6^24@3d+16d16
2 c12@6c12@7c4r12@3d12
2 @6d12@3<b12@6b12@3g12@6g12@7g2
2 @3>>d12
2 @6d12@3<b12@6b12@3g12@6g12@7g2
2 @3c12
2 @6c12@7c3@3d12
2 @6d12@7d12@3d+12@6d+12@7d+12@3f12
2 @6f12@7f6^24@3d+16d16c12
2 @6c12@7c4@3d12@6d12
2 @3<b12@6b12@3g12@6g12r2.
2 @3f12@6f12@7f3^6.

2 r12@3d+12@6d+12@7d+6^24@3f12
2 @6f12@7f6^24@3g12@6g12@7g12
2 @3d12@6d12@7d6^24@3d+12
2 @6d+12@7d+6^24@3d12@6d12@7d12
2 @3c12@6c12@7c6^24@3d+12
2 @6d+12@7d+6^24@3f12@6f12@7f12
2 @3g12@6g12@7g6^24@3f16
2 d+16d12@6d12@7d3
2 @3d+12@6d+12@7d+6^24@3d12
2 @6d12@7d6^24@3c12@6c12@7c12
2 @3f12@6f12@7f6^24@3d+12
2 @6d+12@7d+6^24@3d12@6d12@7d12
2 @3g12@6g12@7g6^24@3d+12
2 @6d+12@7d+6^24@3f12@6f12@7f48
2 @0e32d+32@3d12@6d12@7d3^3.

2 @3g12@6g12@7g6^24@3f12
2 @6f12@7f6^24@3d+12@6d+12@7d+12
2 @3d12@6d12@7d6^24@3d+12
2 @6d+12@7d+6^24@3d12@6d12@7d12
2 @3c12@6c12@7c6^24@3d+12
2 @6d+12@7d+6^24@3f12@6f12@7f12
2 @3g12@6g12@7g6^24@3f16
2 d+16d12@6d12@7d3
2 @3d+12@6d+12@7d+6^24@3d12
2 @6d12@7d6^24@3c12@6c12@7c12
2 @3f12@6f12@7f6^24@3d+12
2 @6d+12@7d+6^24@3d12@6d12@7d12
2 @3c12@6c12@7c3
2 @3d+12@6d+12@7d+12@3f12@6f12@7f12
2 @3g12@6g12@7g2.

2 [@0g+12@7g+24@0g+12@7g+24@0g+12@7g+24@0g+12@7g+24]2
2 [@0f12@7f24@0f12@7f24@0f12@7f24@0f12@7f24]2
2 [@0g12@7g24@0g12@7g24@0g12@7g24@0g12@7g24]4
2 [@0g+12@7g+24@0g+12@7g+24@0g+12@7g+24@0g+12@7g+24]2
2 [@0f12@7f24@0f12@7f24@0f12@7f24@0f12@7f24]2
2 [@0g12@7g24@0g12@7g24@0g12@7g24@0g12@7g24]4
2 >
2 [@0c12@7c24@0c12@7c24@0c12@7c24@0c12@7c24]2
2 <
2 [@0b12@7b24@0b12@7b24@0b12@7b24@0b12@7b24]2

2 r12
2 @0>c16<b16a16b16>c16d16d+16d16
2 d+16d16c16d16d+16f16g16f16
2 g16f16d+16f16g16g+16a+16g+16
2 g16g+16a+16g+16g16f16d+16d16
2 <g+16>c16d+16g16c16d+16g16g+16
2 d+16g16g+16>c16<g16g+16>c16d+16
2 <<g16b16>d16f16<b16>d16f16g16
2 d16f16g16b16f16g16b24@2<d+12
2 @3d+12@4d+6^24@2<g12@3g12@4g6^24
2 @2g_d+12@3d48&c+48@2c_<g+12@3g+_f+24@2>f+12@3f+12
2 @4f+6^24@2f12@3f12@4f6^24
2 @2g_d+12@3d48&c+48@2c_<g+12@3g+_f+24@2>d+12@3d+12@4d+6^24
2 @2g12@3g12@4g6^24
2 @2g_d+12@3d48&c+48@2c_<g+12@3g+_f+24@2>f+12@3f+12@4f+6^24
2 @2f12@3f24@2g_e16g_e16g_e16g_e16c_<a16>c_<a16>c_<a16>c_<a16r16.@3>>>
2 ]0

3 l12
3 r1r1r1r1
3 @0o2c1&
3 f2&
3 f+2&
3 g1&g2.
3 
3 >g_d+12
3 @7d_<a+12^48
3 r16
3 [ o2
3 [
3 @3c12@6c24@3c12@6c24@3c12@6c24@3c12@6c24
3 @3c12@6c24@3c12@6c24@3c12@6c24@3c12@6c24
3 @3f12@6f24@3f12@6f24@3f12@6f24@3f12@6f24
3 @3f+12@6f+24@3f+12@6f+24@3f+12@6f+24@3f+12@6f+24
3 @3g12@6g24@3g12@6g24@3g12@6g24@3g12@6g24
3 @3g12@6g24@3g12@6g24@3g12@6g24@3g12@6g24
3 |
3 @3g12@6g24@3g12@6g24@3g12@6g24@3g12@6g24
3 @3g12@6g24@3g12@6g24@3g12@6g24@3g12@6g24
3 ]4

3 r4@3g_f12@6f96&e32&d+24@7d24&c+16.&d24&d+24&e32&f24&f+32&g32&
3 g+32&a32&a+32&b48&>c48&c+32&d48&d+48&e48@3<c12@6c12@7c6^24

3 @3c12@6c12@7c3^12.@3g12@6g12@7g6^24
3 @3g12@6g12@7g3^12.@3f12@6f12@7f6^24
3 @3f12@6f12@7f3^12.@3d12@6d12@7d6^24
3 @3d12@6d24@3g12@6g12@7g6^24
3 @3g12@6g24@3c12@6c12@7c6^24
3 @3c12@6c12@7c3^12.@3g12@6g12@7g6^24
3 @3g12@6g12@7g3^12.  @3f12@6f12@7f6^24
3 @3f12@6f12@7f3@3f12@6f24@3g12@6g12@7g6^24
3 @3g12@6g24@3g12@6g12@7g6^24
3 @3g12@6g24@3c12@6c12@7c6^24
3 @3c12@6c12@7c6^24@3>c12
3 @6c24@3<c12@6c24@3g12@6g12@7g6^24
3 @3g12@6g12@7g6^24@3>g12
3 @6g24@3<g12@6g24@3f12@6f12@7f6^24
3 @3f12@6f12@7f6^24@3>f12
3 @6f24@3<f12@6f24@3d12@6d12@7d12@3>d12
3 @6d24@3<d12@6d24@3g12@6g12@7g12@3>g12
3 @6g24@3<g12@6g24@3c12@6c12@7c6^24
3 @3c12@6c12@7c6^24@3>c12
3 @6c24@3<c12@6c24@3g12@6g12@7g6^24
3 @3g12@6g12@7g6^24@3>g12
3 @6g24@3<g12@6g24@3g+12@6g+12@7g+6^24
3 @3g+12@6g+24@3a+12@6a+12@7a+6^24
3 @3a+12@6a+24@3c12@6c12@7c6^24
3 @3c12@6c24@3c+12@6c+12@7c+6^24
3 @3c+12@6c+24@3f12@6f24@3>f12@6f24@3<f12
3 @6f24@3f12@6f24@3f12@6f24@3f12@6f24@3f12
3 @6f24@3f12@6f24@3a+12@6a+24@3a+12@6a+24@3a+12
3 @6a+24@3a+12@6a+24@3b12@6b24@3b12@6b24@3b12
3 @6b24@3b12@6b24@3>c12@6c24@3c12@6c24@3c12
3 @6c24@3c12@6c24@3c12@6c24@3c12@6c24@3c12
3 @6c24@3c12@6c24@3c12@6c24@3c12@6c24@3c12
3 @6c24@3c12@6c24@3c12@6c24@3c12@6c24@3c12
3 @6c24@3c12@6c24@3<f12@6f24@3f12@6f24@3f12
3 @6f24@3f12@6f24@3f12@6f24@3f12@6f24@3f12
3 @6f24@3f12@6f24@3a+12@6a+24@3a+12@6a+24@3a+12
3 @6a+24@3a+12@6a+24@3b12@6b24@3b12@6b24@3b12
3 @6b24@3b12@6b24@3>c12@6c24@3c12@6c24@3c12
3 @6c24@3c12@6c24@3<b12@6b24@3b12@6b24@3b12
3 @6b24@3b12@6b24@3a+12@6a+24@3a+12@6a+24@3a+12
3 @6a+24@3a+12@6a+24@3a12@6a24@3a12@6a24@3a12
3 @6a24@3a12@6a24@3g+12@6g+24@3g+12@6g+24@3g+12
3 @6g+24@3g+12@6g+24@3g+12@6g+24@3g+12@6g+24@3g+12
3 @6g+24@3g+12@6g+24@3g12@6g24@3g12@6g24@3g12
3 @6g24@3g12@6g24@3g12@6g24@3g12@6g24@3g12
3 @6g24@3g12@6g24>
3 
3 @3c12@6c24@3c12@6c24@3c12@6c24@3c12@6c24
3 
3 @3<b12@6b24@3b12@6b24@3b12@6b24@3b12@6b24
3 @3a+12@6a+24@3a+12@6a+24@3a+12@6a+24@3a+12@6a+24
3 @3a12@6a24@3a12@6a24@3a12@6a24@3a12@6a24
3 @3g+12@6g+24@3g+12@6g+24@3g+12@6g+24@3g+12@6g+24
3 @3g+12@6g+24@3g+12@6g+24@3g+12@6g+24@3g+12@6g+24
3 
3 @3g12@6g24@3g12@6g24@3g12@6g24@3g12@6g24
3 @3g12@6g24@3g12@6g24@3g12@6g24@3g12@6g24
3 
3 [@3c12@6c24@3c12@6c24@3c12@6c24@3c12@6c24]8
3 ]0

@e0={0,0,9.7.6:3.5}
@e1={0,0,b.8.7:3.6}
@e2={0,0,c.b.a:2.9:2.8:10.b.9.8:2.7:2.6:10.9.7.6:2.5}
@e3={0,0,b.9.8:2.7:2.6}
@e4={0,0,9.7.6:2.5}
@e5={0,0,a.7.6:2.5:2.4:4.6.4.3}
@e6={0,0,a.8.7:2.6:2.5}
@e7={0,0,8.6.5:2.4:2.3}
@e8={0,0,7.6.5:3.4}

