;[gain=2.0 name=hyd3_03 duration=300s fade=5s]
#opll_mode 1
#tempo 150
#title { "HYDLIDE 3 - Out of Freedom (Town)"}
;#psg_tune { 3323, 3137, 2961, 2794, 2638, 2490, 2350, 2218, 2093, 1976, 1865, 1760 }
#psg_tune { 3332, 3144, 2968, 2800, 2644, 2496, 2356, 2224, 2100, 1980, 1868, 1764 }
;#opll_tune { 177, 188, 199, 211, 224, 237, 251, 266, 282, 299, 316, 335 }
#opll_tune { 176, 186, 197, 210, 222, 235, 249, 264, 280, 297, 314, 332 }

@v21 = { ; HH
;       TL FB
         0, 5,
; AR DR SL RR KL MT AM VB EG KR DT
  15, 0, 0, 0, 0,15, 0, 0, 0, 0, 0,
  15,14, 4,10, 3,15, 0, 0, 0, 1, 0 }

@v22 = { ; SD
;       TL FB
         0, 7,
; AR DR SL RR KL MT AM VB EG KR DT
  15, 0, 0, 0, 0,15, 0, 0, 0, 0, 0,
  15,11, 4, 7, 0, 2, 0, 0, 0, 0, 0 }
  
@v23 = { ; BD
;       TL FB
         0, 0,
; AR DR SL RR KL MT AM VB EG KR DT
  15,12, 8, 0, 0, 2, 0, 0, 0, 0, 0,
  12, 7, 2, 5, 0, 0, 0, 0, 0, 1, 0 }
  
#alloc { 1=1500,2=1500 }

123 v13 ; Edit this volume to adjust PSG/FM balance.

9 [ l8
9 @1o5v9\2
9 a4.a8r8a8r8b2
9 >g2^8
9 <a4.g2a2
9 g2^8
9 a4.>a2<g2
9 >g2^8
9 <a+2..>v10c4
9 c12r24c12r24c8r2
9 <v9a4.a8r8a8r8
9 b2>g2^8
9 <a4.g2
9 a2g2^8
9 a4.>a2
9 <g2>g2^8
9 <a+4.>c2^8
9 c8.c8.c8r2
9 <v10d4f8e4>c4
9 v9c+32c32<a+32b32v10a4..>v9a8a16g8a8
9 r8<v10d4f8e4>c4
9 v9c+32c32<a+32b32v10a4..>v8a8a16g8a8
9 r8<v10g8a8g8f4e4.
9 f8g8f8d2^8
9 g8a8e8f4g4.
9 e8r16e8r16e8r2
9 >v9e2..
9 d2>d2^8
9 <e2..
9 d2>g2^8
9 <e2..
9 d2>d2^8
9 <e4.>e2^8
9 <d8r16d8r16d8r8g8r4
9 ]0

A [ l8
A @1o5v9\0
A f4.f8r8f8r8f2
A >d2^8
A <f4.e2f2
A e2^8
A f4.>f2<e2
A >e2^8
A <f2..v10g4
A g12r24g12r24g8r2
A v9f4.f8r8f8r8
A f2>d2^8
A <f4.e2
A f2e2^8
A f4.>f2
A <e2>e2^8
A <g4.g2^8
A c8.a8.a8r%108
A \-1
A d4f8e4>c4
A v8c+32c32<a+32b32v9a4.>f8f16e8f8
A r8.<d4f8e4>c4
A v8c+32c32<a+32b32v9a4.>v8f8f16e8f8
A r8.<v9g8a8g8f4e4.
A f8g8f8d2^8
A g8a8e8f4g4^16
A v10g8r16g8r16g8r2
A \0
A v9f2..
A b2>f2^8
A <f2..
A b2>d2^8
A <f2..
A b2>f2^8
A <f4.>f2^8
A <b8r16b8r16b8r8>d8r4
A ]0

F [ kf
F [ l8 vh9vs13vb15vm15vc10
F h24h24h24c8s4 h8s8c8s8
F h8c8s8c8 h16h16h16h16s8b8
F h8h24h24h24s4 h8s8c8s8
F h8c8s8r8 h16h16h16h16s8b8
F h8c8s8h8 h8h8s8h8
F h8c8s8h8 h8h8s8c8 |
F h8c8s8r8 h16h16h16h16s8vs15s8 r8s8s8s8 vs14s8s8m16m16s8
F ]2
F c4s8c4s8h16h16c8 s8.s8.s8r8vs14s8s16s16s8
F [h8h8s8c8h8c8s8s8 | h8h8s8c8h8c8s16s16s8]3 h8h8s8c8c8s8c8c8
F h16h16c16h16s16s16h16c16h16h16c16h16s16s16c16h16
F s8.s8.s8r2
F [h16h16c16h16h16h16c16h16 h16h16c16h16h16h16s16h16]7
F s8.s8.s8r8s8r4
F ]0

1 [
1 l8
1 @0o4d8c8<a8>c8
1 r8e8r8d2^8
1 r8d8
1 f8g8a8g8
1 f8g8r8>c8
1 r8<a2..
1 r8
1 a16a+16a8d8f8
1 g8r8>c8r8<a4
1 c8e8g8
1 f8e8r8d16f16g8
1 f8d8f8r8
1 a8r8>c4<b16
1 a+16a4r8<g_c+8g_e16g_e16
1 c_<f+8>>d8c8<a8>c8
1 r8e8r8d2^8
1 r8
1 d8f8g8a8
1 g8f8g8r8>c8
1 r8<a2..
1 
1 r8a16a+16a8d8f8
1 g8r8>c8r8<a4
1 c8e8g8
1 f8e8r8d16f16
1 g4f8e4
1 f16e16c4
1 d2
1 l16
1 r8<g_c+8g_e16g_e16c_<f+8@1>>a32@2a16r32@1a32@2a16r32@1a32
1 @2a16r32@1a32@2a16r32@1a32@2a16r32@0<a_d+8f_<b8>d_<g+8@1>>a32
1 @2a16r32@1a32@2a16r32@1a32@2a16r32@1a32@2a16r32@1a32@2a16
1 r32@1a32@2a16r32@1a32@2a16r32@3<a_d+8@1>a32@2a16r32@1a32@2a16
1 r32@1a32@2a16r32@1a32@2a16r32@1a32@2a16r32@0<a_d+8f_<b8>d_<g+8
1 @1>>a32@2a16r32@1a32@2a16r32@1a32@2a16r32@1a32@2a16r32@1a32
1 @2a16r32@1a32@2a16r32@1a32@2a16r32@3<d_<g+8@1>>b32@2b16r32@1b32
1 @2b16r32@1b32@2b16r32@1g32@2g16r32@1g32@2g16r32@1g32@2g16
1 r32@0<a_d+8f_<b8@1>>a32@2a16r32@1a32@2a16r32@1a32@2a16r32@1d32
1 @2d16r32@1d32@2d16r32@1d32@2d16r32@0<f_<b8>d_<g+8@1>>a32@2a16
1 r32@1a32@2a16r32@0<a_d+8d_<g+8@1>>a+32@2a+16r32@1a+32@2a+16r32
1 @0<d_<g+8>d_<g+8>>e8.e8.
1 e8<g_e16g_e16g_e16g_e16e_c+16e_c+16e_c+16e_c+16@4>>>d32@5d16r32@4c32@5c16
1 r32@4<a32@5a16r32@4>c32@5c16r8^32@4e32@5e16r32@4f32@5f16r32@4e32@5e16r32@4d32
1 @5d32@4<b32@5b32@4g32@5g16r32@4b32@5b16r32@4>d32@5d16r32@4f32@5f32@4g32@5g32@4f32
1 @5f16r32@4d32@5d16r8^32@4d32@5d16r32@4c32@5c16r32@4<a32@5a16r32@4>c32@5c16r8^32
1 @4e32@5e16r32@4f32@5f16r32@4e32@5e16r32@4d32@5d32@4<b32@5b32@4g32@5g16r32
1 @4b32@5b16r32@4>d32@5d16r32@4f32@5f32@4g32@5g32@4f32@5f16r32@4d32@5d16r8^32
1 @4d32@5d16r32@4c32@5c16r32@4<a32@5a16r32@4>c32@5c16r8^32@4e32@5e16r32@4f32@5f16
1 r32@4e32@5e16r32@4d32@5d32@4<b32@5b32@4g32@5g16r32@4b32@5b16r32@4>d32@5d16r32@4f32
1 @5f32@4g32@5g32@4f32@5f16r32@4d32@5d16r8^32@4d32@5d16r32@4c32@5c16r32@4<a32
1 @5a16r32@4>c32@5c16r8^32@4e32@5e16r32@4f32@5f16r32@4e32@5e16r32@4d32@5d16r16.
1 @4d32@5d16r16.@4d32@5d16r%102 ]0

2 [ l12
2 r16@6o4d12@7d24@6c12@7c24@6<a12@7a24@6>c12@7c24
2 r8@6e12@7e24r8@6d12@7d%104
2 r8@6d12
2 @7d24@6f12@7f24@6g12@7g24@6a12@7a24@6g12
2 @7g24@6f12@7f24@6g12@7g24r8@6>c12@7c24
2 r8@6<a12@7a%152
2 r8
2 @6a16a+16a12@7a24@6d12@7d24@6f12@7f24
2 @6g12@7g24r8@6>c12@7c24r8@6<a12@7a6
2 @6c12@7c24@6e12@7e24@6g12@7g24
2 @6f12@7f24@6e12@7e24r8@6d16f16g12
2 @7g24@6f12@7f24@6d12@7d24@6f12@7f24r8
2 @6a12@7a24r8@6>c12@7c6@6<b16
2 a+16a12@7a6r2
2 @6d12@7d24@6c12@7c24@6<a12@7a24@6>c12
2 @7c24r8@6e12@7e24r8@6d12@7d%104
2 r8
2 @6d12@7d24@6f12@7f24@6g12@7g24@6a12@7a24
2 @6g12@7g24@6f12@7f24@6g12@7g24r8@6>c12
2 @7c24r8@6<a12@7a%152
2 
2 r8@6a16a+16a12@7a24@6d12@7d24@6f12
2 @7f24@6g12@7g24r8@6>c12@7c24r8@6<a12
2 @7a6@6c12@7c24@6e12@7e24@6g12
2 @7g24@6f12@7f24@6e12@7e24r8@6d16f16
2 g12@7g6@6f12@7f24@6e12@7e6
2 @6f16e16c12@7c6
2 @6d12@7d3^12 l32
2 r4..@4f32@5f16r32@4e32@5e16r32@4f32@5f16r32@4g32
2 @5g16r8^32@4e32@5e16r32@4f32@5f16r32@4d32@5d16r32@4f32@5f32@4e32@5e32@4d32
2 @5d32@4e32@5e32@4f32@5f32@4g32@5g32@4a32@5a32@4>c32@5c32@4d32@5d32@4e32@5e32@4f32
2 @5f32@4g32@5g32@4a32@5a32@4>c32@5c32@4d32@5d32@4e32@5e32@4<<f32@5f16r32@4e32@5e16
2 r32@4f32@5f16r32@4g32@5g16r8^32@4e32@5e16r32@4f32@5f16r32@4g32@5g16r32@4f32
2 @5f32@4e32@5e32@4d32@5d32@4e32@5e32@4f32@5f32@4g32@5g32@4a32@5a32@4>c32@5c32@4d+32
2 @5d+32@4f+32@5f+32@4g32@5g32@4a32@5a32@4b32@5b32@4>c32@5c32@4d+32@5d+32@4f+32@5f+32
2 @4<<d32@5d16r32@4e32@5e16r32@4d32@5d16r32@4c+32@5c+16r8^32@4c+32@5c+16r%54
2 @4c32@5c16r32@4d32@5d16r32@4c32@5c16r32@4<b32@5b16r8^32@4b32@5b16r%54
2 @4a32@5a32@4a+32@5a+32@4>d32@5d32@4f32@5f32@4<a32@5a32@4a+32@5a+32
2 @4>d32@5d32@4f32@5f32@1<g32@2g32@1a+32@2a+32@1>d32@2d32@1f32@2f32@8<g32@9g32
2 @8a+32@9a+32@8>d32@9d32@8f32@9f32@8c32@9c%14r12@8c32@9c%14r12@8c32@9c%14
2 r%148
2 l8 @0<f_<b8r4.
2 >f_<b8>d_<g+8r4>f_<b8r4
2 >a_d+8r8a_d+8r4f_<b8r4.
2 >f_<b8>d_<g+8r4>f_<b8r8
2 >a_f+16a_f+16f_<b8>f_<b8>d_<g+8r4>f_<b8r4.
2 >f_<b8>f_<b8r4>f_<b8r4
2 >f_<b8r8>f_<b8r4>f_<b8r8
2 >f_d16f_d16f_d16f_d16d_<b16>d_<b16>d_<b16>d_<b16@1>f32@2f16r16.@1f32@2f16
2 r16.@1f32@2f16r8^32@1>f96&e96&d+96@2c+_<a16r%54 ]0

3 [ l8
3 @0o2d4.>d8
3 r8<d4g2
3 g8r8
3 d8r8g8a+4.
3 a2
3 >d2
3 c2^8
3 <a+4.
3 >a+8r8<a+4
3 >c2
3 >c8r8<c4
3 <a16a+16g4.
3 >g4<g4
3 >a4<a8a8
3 a8>c8>c8r8
3 <c16c+16<d4.
3 >d8r8<d4g2
3 g8
3 r8d8r8g8a+4.
3 a2
3 >d2
3 c2^8
3 <a+4.
3 >a+8r8
3 <a+4>c2
3 >c8r8<c4
3 <a16a+16g4.
3 a4.
3 a4d8.
3 d8.d8r2
3 <a+4.>c2
3 f2
3 f4.
3 e4
3 <a+4.>c2
3 d2
3 d+2^8
3 
3 e4.a2^8
3 
3 d4.g2^8
3 
3 a+4.a+8
3 g4.g8
3 a8.a8.a8
3 r2d4.
3 >d8r8<<a8
3 >d8g2
3 g8r8>g8r8
3 g8<d4.
3 >d8r8<<a8>d8g2
3 g8
3 g16>g16f+8f8e8
3 <d4.>d8
3 r8<<a8>d8g2
3 g8
3 r8>g8r8g8<d4
3 c+4c4
3 <b4>g8.
3 g8.g8r8>g8
3 r4 ]0 

@e0={0,0,d.b.a.9:2.8:2.7:5.6:4.5:4.4:3.3:5.[4.3:5]}
@e1={0,0,d.a.7}
@e2={0,0,b.8.6.5.4.3}
@e3={0,0,f.e.d.c.b:2.a:2.9:2.8}
@e4={0,0,c.9.6}
@e5={0,0,a.7.5.4.3}
@e6={0,0,c.a.9.8:2.7:2.6}
@e7={0,0,9.8.7.6:2.5:4.4:4.3}
@e8={0,0,d.b.8}
@e9={0,0,c.9.7.6.5.4.3}

