;[gain=2.0 name=hyd3_09 duration=300s fade=5s]
#opll_mode 1
#tempo 150
#title { "HYDLIDE 3 - Light Metal (Tech Fortress)"}
;#psg_tune { 3323, 3137, 2961, 2794, 2638, 2490, 2350, 2218, 2093, 1976, 1865, 1760 }
#psg_tune { 3332, 3144, 2968, 2800, 2644, 2496, 2356, 2224, 2100, 1980, 1868, 1764 }
;#opll_tune { 177, 188, 199, 211, 224, 237, 251, 266, 282, 299, 316, 335 }
#opll_tune { 176, 186, 197, 210, 222, 235, 249, 264, 280, 297, 314, 332 }

@v21 = { ; HH
;       TL FB
         0, 5,
; AR DR SL RR KL MT AM VB EG KR DT
  15, 0, 0, 0, 0,15, 0, 0, 0, 0, 0,
  15,14, 4,10, 3,15, 0, 0, 0, 1, 0 }

@v22 = { ; SD
;       TL FB
         0, 7,
; AR DR SL RR KL MT AM VB EG KR DT
  15, 0, 0, 0, 0,15, 0, 0, 0, 0, 0,
  15,12, 5, 7, 0, 2, 0, 0, 0, 1, 0 }
  
@v23 = { ; BD
;       TL FB
         0, 0,
; AR DR SL RR KL MT AM VB EG KR DT
  15,12, 8, 0, 0, 2, 0, 0, 0, 0, 0,
  12, 7, 4, 5, 0, 0, 0, 0, 0, 1, 0 }
  
123 v13 ; Edit this volume to adjust PSG/FM balance.

9 [
9 @10o4v8 l16
9 b16r16b16b16 b16r16b16r16 b16b16b16r16 a16r16a16a16 
9 a16r16a16a16 a16r16a16r16 a16a16a16r16 a16r16a16a16 
9 a16r16a16a16 a16r16a16r16 a16a16a16r16 a16r16a16a16
9 a16r16a16a16 a16r16a16r16 a16a16a16r16 a16r16a16a16
9 g16r16g16g16 g16r16g16r16 g16g16g16r16 g16r16f+16f+16
9 f+16r16f+16f+16 f+16r16f+16r16 f+16f+16f+16r16 f+16r16f+16f+16
9 b16r16b16b16 b16r16b16r16 b16b16b16r16 b16r16b16b16
9 a16r16a16a16 a16r16b16r16 b16b16b16r16 b16r16b16b16
9 e16r16e16e16 e16r16e16r16 e16e16e16r16 e16r16e16e16
9 f+16r16f+16f+16 f+16r16f+16r16 f+16f+16f+16r16 f+16r16f+16f+16
9 e16r16e16e16 e16r16f+16r16 f+16f+16f+16r16 g16r16g16g16
9 g16r16g16g16 g16r16g16r16 g16g16g16r16 g16r16g16g16
9 e16r16e16e16 e16r16e16r16 e16e16e16r16 e16r16e16e16
9 e16r16e16e16 e16r16e16r16 e16e16e16r16 e16r16g16g16
9 g16r16g16g16 g16r16g16r16 g16g16g16r16 g16r16g16g16
9 f+16r16f+16f+16 f+16r16f+16r16 f+16f+16f+16r16 f+16r16f+16f+16
9 @9v8>
9 e4.e4.f+2.>f+2
9 <g4.a4.g4.a4.g4a4
9 e4.e4.f+2.>f+2
9 <g4.g4.f+2.>f+2
9 g4.>g2^8<g4.>g2^8
9 <g4.f+4.g4.f+4.g4f+4
9 <<g16c16e16g16a16>c16e16g16a16>c16e16g16a16>c16e16g16<<
9 b4.a4.g4.a4.g4a4b1<a8.a8.b8r2
9 ]0

A [
A @10o4v8 l16
A g16r16g16g16 g16r16g16r16 g16g16g16r16 f+16r16f+16f+16
A f+16r16f+16f+16 f+16r16f+16r16 f+16f+16f+16r16 f+16r16f+16f+16
A f+16r16f+16f+16 f+16r16f+16r16 f+16f+16f+16r16 f+16r16f+16f+16
A f+16r16f+16f+16 f+16r16f+16r16 f+16f+16f+16r16 f+16r16f+16f+16
A b16r16b16b16 b16r16b16r16 b16b16b16r16 b16r16a16a16
A a16r16a16a16 a16r16a16r16 a16a16a16r16 a16r16a16a16
A g16r16g16g16 g16r16g16r16 g16g16g16r16 g16r16g16g16
A f+16r16f+16f+16 f+16r16g16r16 g16g16g16r16 g16r16g16g16
A c16r16c16c16 c16r16c16r16 c16c16c16r16 c16r16c16c16
A a16r16a16a16 a16r16a16r16 a16a16a16r16 a16r16a16a16
A g16r16g16g16 g16r16a16r16 a16a16a16r16 b16r16b16b16
A b16r16b16b16 b16r16b16r16 b16b16b16r16 b16r16b16b16
A c+16r16c+16c+16 c+16r16c+16r16 c+16c+16c+16r16 c+16r16c+16c+16
A c+16r16c+16c+16 c+16r16c+16r16 c+16c+16c+16r16 c+16r16e16e16
A e16r16e16e16 e16r16e16r16 e16e16e16r16 e16r16e16e16
A d+16r16d+16d+16 d+16r16d+16r16 d+16d+16d+16r16 d+16r16d+16d+16
A @9v8 >>
A c4.c4.<a2.>a2
A d4.c4.d4.c4.d4c4
A c4.c4.<a2.>a2
A <b4.b4.a2.>a2
A <b4.>b2^8<b4.>a+2^8
A c4.d4.<b4.a4.b4a4
A <e16g16c16e16g16a16>c16e16g16a16>c16e16g16a16>c16e16
A <g4.f+4.e4.d4.e4f+4g1<f+8.f+8.g8r2
A ]0

B [ o3 l16
B [@22v14c8@21v12c16c16c16c16@22v14c8@21v12c16c16c16c16|@22v14c8@23v12c8]8 @22v14c16c16@21v12c8
B [@22v14c8@21v12c16c16c16c16@22v14c8|@21v12c16c16c16c16@22v14c8@23v12c8]8 v13c16c16c16c16v14c16c16c16c16
B @21v13c4@22v14c8@21v13c4c8@22v14c8@21v13c8
B c4@22v14c4@21v12c8@23c16c16@22v15c4
B @22v14c8@21v13c8c8@22v14c8@21v13c8c8@22v14c8@21v13c8c8
B @22v14c8@21v13c8c8@22v14c8@21v13c8@22v14c8@21v13c8c4@22v14c8@21v13c4c8@22v14c8@21v13c8
B c4@22v14c4@21v12c8@23c16c16@22v15c4
B @22v14c8@21v13c8 c8@22v14c8 @21v13c8c8 @22v14c8@21v13c8
B v12c8@22v12c8 @22v13c8@21v12c8 c16c16c16c16 c16c16c16c16
B [c16c16c16c16 @22v14c16@21v12c16c16c16 c16c16c16c16 @22v14c16@21v12c16c16c16]2
B @22v14c16@21v12c16c16c16 c16c16@22v14c16@21v12c16 c16c16c16c16 @22v14c16@21v12c16c16c16
B c16c16c16c16 @22v13c8@21v12c16c16 c16c16c16c16 @22v14c16c16c8
B v12c8c8 v13c8c8 c8c8 v14c8c8
B v15c8@21v14c8 c8@22v15c8 @21v14c8c8 @22v15c8@21v14c8
B c8@22v15c8 @21v14c8c8 @22v15c4 c4
B @21v14c4@22v15c8@21v14c4c8 @22v15c16c16c8
B c8.c8.c8@21v12c16c16c16c16 @22v14c16c16c8
B ]0

1 [ o4@0 l8
1 b4.a4.>d2<b4a4g4a4f+8d1&d2^8
1 e4b8a4>d4f+2^8f+8g8f+4e4<b8g1&g2^8
1 a1f+2a2g4d8a4e8b1
1 b4a+1g4e8a+4g4b1&b1&b8

1 a4r8a4r8d2.a8b8a8d8>
1 d4.c4.<b4.a4.b8r8>c8r8<
1 a4r8a4r8d2.a8b8a8d8
1 g4.a4g8b3^3r12
1 @1
1 b8>d8r8h16,2,0,5e2^8r8hfe8g8
1 h16,2,0,5e2^8r8<hfa+8
1 a8g8h16,2,0,4a4hfg8
1 h16,2,0,4a4hfe8h16,2,0,5g2.
1 r8hfg8b8h16,2,0,4a1
1 r8
1 >h20,2,0,6d4.<h20,2,0,4b4.>h20,2,0,6d4.
1 <h20,2,0,4b4.>hfg8r8f+8
1 r8h39,2,0,3e2..r8hfd8.d+8.e8r2
1 ]0

2 r12 [ o4 l12
2 @2b12@3b6^12.@2a12@3a6^12.>@2d12@3d3^12<@2b12@3b6
2 @2a12@3a6 @2g12@3g6 @2a12@3a6 @2f+12@3f+24 @2d12@3d1&d%104
2 @2e12@3e6 @2b12@3b24 @2a12@3a6>@2d12@3d6 @2f+12@3f+%104
2 @2f+12@3f+24 @2g12@3g24 @2f+12@3f+6 @2e12@3e6< @2b12@3b24 @2g12@3g1&g%104
2 
2 @2a12@3a%176 @2f+12@3f+3^12 @2a12@3a3^12 @2g12@3g6 @2d12@3d24 @2a12@3a6
2 @2e12@3e24@2b12@3b%176
2 @2b12@3b6 @2a+12@3a+%176
2 @2g12@3g6@2e12@3e24@2a+12 @3a+6@2g12@3g6@2b12 @3b1&b1&b24
2 @2a12@3a6r8@2a12@3a6 r8@2d12@3d3^3
2 @2a12@3a24@2b12@3b24@2a12@3a24@2d12@3d24>@2d12
2 @3d6^12.@2c12@3c6^12.<@2b12@3b6^12.
2 @2a12@3a6^12.@2b12@3b24r8>@2c12@3c24r8<@2a12@3a6
2 r8@2a12@3a6r8@2d12@3d3^3
2 @2a12@3a24@2b12@3b24@2a12@3a24@2d12@3d24@2g12@3g6^12.
2 @2a12@3a6@2g12@3g24@2b12@3b3^6.

2 r12@4
2 b8>d8r8h16,2,0,5e2^8r8hfe8g8
2 h16,2,0,5e2^8r8<hfa+8
2 a8g8h16,2,0,4a4hfg8
2 h16,2,0,4a4hfe8h16,2,0,5g2.
2 r8hfg8b8h16,2,0,4a1
2 r8
2 >h20,2,0,6d4.<h20,2,0,4b4.>h20,2,0,6d4.
2 <h20,2,0,4b4.>hfg8r8f+8
2 r8h39,2,0,3e2..r8hfd8.d+8.e8r2
2 ]0

3 [ o2@5 l8
3 [e8]16
3 [d8]16
3 >[c8]8 <[b8]8
3 [e8]8 d8d8d8e8 e8e8e8e8
3 [a8]8 >d8d8d8d8 d+8d+8d+8d+8
3 e8e8e8d8 d8d8[c8]10
3 <[a8]8 [a+8]7b8
3 [b8]16
3 @5a6@6a6^24@5a6@6a6^24>@5d6@6d3
3 @5g_<b6@6b_g+12>@5d8
3 d_<b16>d_<b16>g_<b6@6b_g+12>@5e6@6e6^24
3 @5d6@6d6^24@5e6
3 @6e6^24@5d6@6d6^24
3 @5e6@6e12@5d6
3 @6d12<@5a6@6a6^24
3 @5a6@6a6^24>@5d6@6d3
3 @5g_<b6@6b_g+12>@5d8d_<b16>d_<b16>g_<b6@6b_g+12>@5e6
3 @6e6^24@5c6@6c6^24
3 <@5b6@6b12r8@5b8b8b8b8b8b8
3 e6@6e12>@5e8<e8e8e8e8e8>
3 c6@6c12>@5c8<c8c8c8c8c8c8
3 <a8a8a8b8b8b8
3 >c8c8c8c8c8c8c8c8c8<
3 a6@6a12@5a8a8a8a8a8a8a8>
3 c6h12,2,0,6@6c6^24<hf@5b6
3 h12,2,0,4@6b6^24>hf@5c6
3 h12,2,0,6@6c6^24<hf@5b6
3 h12,2,0,4@6b6^24hf@5a6@6a12@5b6@6b12@5e6
3 h32,2,0,3@6e3^3.hf@5d6@6d48@5d+6@6d+48@5e6@6e6^24
3 @5g_f16g_f16c_<a8>
3 ]0

@e0={0,0,d.b:2.a:2.9:2.8:4.7:5.6:4.5:2.4}
@e1={0,0,d.b.a:2.9:4.8:8.7:6.8}
@e2={0,0,b.9:2.8:2.7:2.6}
@e3={0,0,9.7.6.5:5.7.6.5.4:4.3:5.[4.3:5]}
@e4={0,0,c.a.9:2.8:2.7:2.9.7.6:6.8.7.6.5:2.6.[7.6:5]}
@e5={0,0,d.b.a.9:2.8:3.7:3.6}
@e6={0,0,a.8.7:2.6:2.5}
