;[gain=2.0 name=hyd3_11 duration=300s fade=5s]
#opll_mode 1
#tempo 150
#title { "HYDLIDE 3 - Battle In The Splash Cave (Forbidden Caves)"}
;#psg_tune { 3323, 3137, 2961, 2794, 2638, 2490, 2350, 2218, 2093, 1976, 1865, 1760 }
#psg_tune { 3332, 3144, 2968, 2800, 2644, 2496, 2356, 2224, 2100, 1980, 1868, 1764 }
;#opll_tune { 177, 188, 199, 211, 224, 237, 251, 266, 282, 299, 316, 335 }
#opll_tune { 176, 186, 197, 210, 222, 235, 249, 264, 280, 297, 314, 332 }

@v21 = { ; HH
;       TL FB
         0, 5,
; AR DR SL RR KL MT AM VB EG KR DT
  15, 0, 0, 0, 0,15, 0, 0, 0, 0, 0,
  15,14, 4,10, 3,15, 0, 0, 0, 1, 0 }

@v22 = { ; SD
;       TL FB
         0, 7,
; AR DR SL RR KL MT AM VB EG KR DT
  15, 0, 0, 0, 0,15, 0, 0, 0, 0, 0,
  15,11, 4, 7, 0, 2, 0, 0, 0, 0, 0 }
  
@v23 = { ; BD
;       TL FB
         0, 0,
; AR DR SL RR KL MT AM VB EG KR DT
  15,12, 8, 0, 0, 2, 0, 0, 0, 0, 0,
  12, 7, 2, 5, 0, 0, 0, 0, 0, 1, 0 }
  
@v24 = { ; RIM
;       TL FB
        15, 0,
; AR DR SL RR KL MT AM VB EG KR DT
  15,12,15,15, 0,15, 0, 0, 0, 0, 0,
   7, 9, 4, 7, 0, 0, 0, 0, 0, 1, 0 }

#alloc { 3=1500 }

123 v13 ; Edit this volume to adjust PSG/FM balance.
; 9AB23 !

9 [ r2@9o5v9
9 e8e4d2^8
9 d8c8<b8a8
9 r2>e8e4d2..
9 a4
9 r2e8e4d2^8
9 d8c8<b8a8
9 r2>e8e4d2
9 g2^8
9 r2v8e8e4d2^8
9 d8c8<b8a8
9 r2>e8e4d2..
9 a4
9 r2e8e4d2^8
9 d8c8<b8a8
9 r2>e8e4d2
9 g2^8
9 r2a4.g2
9 >g2^8
9 r2<a4.g2
9 f4.>d4
9 r2<a4.g2
9 >g2^8
9 r2<a4.g+1&g+12^48.
9 ]0

A [ r2@9o5v8
A c8c4<b1&b8
A r2
A >c8c4<b2..
A >e4
A r2c8c4<b1&b8
A r2
A >c8c4<b2
A >>d2^8
A r2<c8c4<b1&b8
A r2
A >c8c4<b2..
A >e4
A r2c8c4<b1&b8
A r2
A >c8c4<b2
A >>d2^8
A r2<f4.e2
A >e2^8
A r2<f4.e2
A d4.b4
A r2f4.e2
A >e2^8
A r2<f4.e1&e12^48.
A ]0

B [ o3v12
B [@23c8@21c16c16@22v14c8@21v12c16@23v10c16 | v12c8@21c16c16@22v14c8@21v12c16c16]4
B @21v13c16c16@22v14c16@23v12c16@21v13c16c16@22v14c16@23v10c16
B v12
B [@23c8@21c16c16@22v14c8@21v12c16@23v10c16 v12c8@21c16c16@22v14c8@21v12c16c16]3
B @22v13c16c16c16c16c16c16c16c16 v14c16c16c16c16v15c16c16c16c16
B [ v12
B [@23c8@21c16c16@22v14c8@21v12c16@23v10c16 | v12c8@21c16c16@22v14c8@21v12c16c16]4
B @21v13c16c16@22v14c16@23v12c16@21v13c16c16@22v14c16@23v10c16
B ]4
B ]0

1 l16
1 [ o5
1 @0
1 h8,2,0,3a8@1a12^48@2a16a16a+16a16h1,3,0,2a16a16@3a16@2a+16a16h1,3,0,2a16a16a16@0a+48>
1 h8,2,0,3c8@4c12^48@2c16c16c+_<b16>c16h1,3,0,3c16c16c16c+_<b16>c16h1,3,0,3c16c16c16@0c+48
1 h8,2,0,3e8@4e12^48@2e16e16f16e16h1,3,0,2e16e16e16f16e16h1,3,0,2e16e16e16@0f48
1 h8,2,0,3d8@4d+12^48@2d+16d16e_c+16d16h1,3,0,3d+16d+16d16e_c+16@0d48
1 hf<<<@5g_<g+4>>>>
1 @0
1 h8,2,0,1a8@4a12^48@2a16g+16b_g+16g+16h1,3,0,1a16a16g+16b_g+16g+16h1,3,0,1a16a16g+16@0b48>
1 h8,2,0,1c8@4c+12^48@2c+16<b16>d+_<a+16b16>h1,3,0,1c+16c+16<b16>d+_<a+16b16>h1,3,0,1c+16c+16<b16>@0d+48
1 h8,2,0,0e8@4f12^48@2f16d+16f+_d+16d+16h1,3,0,0f16f16d+16f+_d+16d+16h1,3,0,0f16f16d+16@0f+48
1 h8,2,0,0d8@4d+12^48@2d+16c+16f+_c16c+16h1,3,0,0d+16d+16c+16f+_c16@0c+48
1 hf<<<<@5g_e16g_e16c_<f+8>>
1 @6a8@7a12^48
1 @8a16h8,2,0,1a16a16a16a16a16@0a48@6e8a8>e8@7d+12^48@8f16e16
1 @0d+48@6d8g8@7f+12^48@8g+16g16@0f+48@6e8@7d+12^48@0f48@6d8
1 c8<b8>c8<@7b12^48>@8c+16c16@0c48@6e8<a8@7a12^48@8a16a16
1 @0a48>@6d8<g8@7f+12^48@8g16g16g16g16g16f+16@0g48
1 @6a8@7a12^48@8a16a16a16a16a16a16@0a48@6e8a8>e8@7d+12^48@8f16
1 e16@0d+48@6d8g8@7f+12^48@8g+16g16@0f+48@6e8@7d+12^48
1 @0f48@6b8@7a+12^48>@8c16<b16@0b48>@6c16<b16a8@7g+12^48@8a+16
1 a16@0a48>@6f+16f16e8@7d12^48@8f+16e16d+16f16e16d16e16
1 f16d+16e16f+16e16@0d+48<@6d8@7c+12^48@8d+16d16c+16
1 d16d16c+16@0d48@6f8a8>c8<@7b12^48>@8d16c16<@0b48@6b8>d8@7c12^48
1 @8e16d16@0c+48<@6b8a8@7g+12^48@8a+16a16a16a16
1 a16g+16a16a16@0a48@6d8f+16f16e8@7d+12^48@8f16e16d+16
1 f16e16d+16e16f16d+16e16f16e16d+16f16@0e48
1 @6d8@7c+12^48@8d+16d16c+16d16d16c+16@0d48@6c8<a8f8@7e12^48@8f16
1 f16@0f48@6b8>d8@7c+12^48@8d+16d16@0c+48@6g8f8@7e12^48
1 @8f+16f16e16f+16f16e16f16f+16@0e48@6d8a+16a16g+8@7g12^48
1 @8a16g+16g+16g+16g+16g16g+16g+16 g+16g+16a16g+16@0g+32r8 ]0

2 l16
2 [ r8o5@9
2 a8@10a12^48@11a16@2a16@11a16a16@12a+16@11g+16a+16a16a16a16a16a+16@0g+48>
2 @13c8@10c12^48@11c16c16c16c16c+_<b16b16>c+16c16c16c16c16c+_<b16@0b48>
2 @13e8@10e12^48@11e16e16e16e16f16d+16f16e16e16e16e16f16@0d+48
2 @13d8@10d12^48@11d16d+16d+16d16e_c+16c+16e16d16d+16d+16@0d48
2 r8
2 @13a8@10g+12^48@11g+16a16a16g+16b_g+16g+16b16g+16a16a16g+16b_g+16@0g+48>
2 @13c8<@10b12^48@11b16>c+16c+16<b16>d+_<a+16a16>d+16<b16>c+16c+16<b16>d+_<a+16@0a48>
2 @13e8@10d+12^48@11d+16f16f16d+16f+_d+16d16f+16d+16f16f16d+16f+_d+16@0d48
2 @13d8@10c+12^48@11c+16d+16d+16c+16f+_c16<b16>f+16c+16d+16d+16@0c+48
2 r8<<<
2 a8@4a12^48@2a16a16a16a16a16a16@0a48e8a8>e8@4e12^48@2e16e16
2 @0e48d8g8@4g12^48@2g16g16@0g48e8@4e12^48@0e48d8
2 c8<b8>c8@4c12^48@2c16c16@0c48e8
2 <a8@4a12^48@2a16a16@0a48>d8<g8@4g12^48@2g16g16g16g16g16
2 g16@0g48a8@4a12^48@2a16a16a16a16a16a16@0a48e8a8
2 >e8@4e12^48@2e16e16@0e48d8g8@4g12^48@2g16g16@0g48e8
2 @4e12^48@0e48b8@4b12^48@2b16b16@0b48>c16<b16a8@4a12^48@2a16a16@0a48
2 >f+16f16e8@4e12^48@2e16e16e16e16f16d+16f16e16e16e16e16
2 f16@0d+48<d8@4d12^48@2d16d16d16d16d16c+16@0d48f8a8
2 >c8@4c12^48@2c16c16@0c48<b8>d8@4d12^48@2d16d16@0d48<b8
2 a8@4a12^48@2a16a16a16a16a16a16a16a16@0a48d8f+16f16
2 e8@4e12^48@2e16e16e16e16f16d+16f16e16e16e16e16f16d+16
2 f16@0e48d8@4d12^48@2d16d16d16d16d16c+16@0d48c8<a8
2 f8@4f12^48@2f16f16@0f48b8>d8@4d12^48@2d16d16@0d48g8
2 f8@4f12^48@2f16f16f16f16f+16e16f+16f16@0f48d8a+16a16g+8@4g+12^48
2 @2g+16g+16g+16g+16g+16g+16g+16g+16 g+16g+16g+16g+16@0g+32
2 ]0

3 l16
3 [ o2
3 hf@5a8>@1e16h2,3,0,2@4e16<
3 hf@5a8>@4e16e16<
3 h1,2,0,2@5a8>h0,4,0,2@4e16hfe16<
3 h1,6,0,2@5a8>hf@4e16h1,2,0,2e16<
3 hf@5a8>@4e16h2,3,0,3e16<
3 hf@5a8>@4e16e16<
3 h1,2,0,3@5a8>h1,4,0,3@4e16hfe16<
3 @5a16>c16d16h1,2,0,3e16<
3 hf@5a8>@4e16h2,3,0,2e16<
3 hf@5a8>@4e16e16<
3 h1,2,0,2@5a8>h1,4,0,2@4e16hfe16<
3 h1,6,0,2@5a8>hf@4e16h1,2,0,2e16<
3 hf@5a8>@4e16h2,3,0,3e16<
3 hf@5a8>@4e16e16<
3 h1,2,0,3@5a8>h1,4,0,3@4e16hfe16<
3 @5a16>c16d16h1,2,0,3e16<
3 @5hfa8>@4e16h2,3,0,2e16<
3 hf@5a8>@4e16e16<
3 h1,2,0,2@5a8>h1,4,0,2@4e16hfe16<
3 h1,6,0,2@5a8>hf@4e16h1,2,0,2e16<
3 hf@5a8>@4e16h2,3,0,3e16<
3 hf@5a8>@4e16e16<
3 h1,2,0,3@5a8>h1,4,0,3@4e16hfe16<
3 @5a16>c16d16h1,2,0,3e16<
3 @5hfa8>@4e16h2,3,0,2e16<
3 hf@5a8>@4e16e16<
3 h1,2,0,2@5a8>h1,4,0,2@4e16hfe16<
3 h1,6,0,2@5a8>hf@4e16h1,2,0,2e16<
3 hf@5a8>@4e16h2,3,0,3e16<
3 hf@5a8>@4e16e16<
3 h1,2,0,3@5a8>h1,4,0,3@4e16hfe16<
3 @5a16>c16d16h1,2,0,3e16<
3 hf@5a8>@4e16h2,3,0,1e16<
3 hf@5a8>@4e16e16<
3 h1,2,0,1@5a8>h1,4,0,1@4e16hfe16<
3 h8,3,0,2@5a8>hf@4e16h2,3,0,1e16<
3 h8,3,0,2@5a8>hf@4e16e16<
3 @5a8>@4e16h2,3,0,2e16<
3 h8,3,0,2@5a8>hf@4e16e16<
3 @5a16>c16d16h2,3,0,2e16<
3 hf@5a8>@4e16h2,3,0,2e16<
3 h8,3,0,2@5a8>hf@4e16h2,3,0,1e16<
3 h8,3,0,2@5a8>hf@4e16e16<
3 @5a8>@4e16h2,3,0,2e16<
3 h8,3,0,1@5a8>hf@4e16e16<
3 @5a8>@4e16h2,3,0,2e16<
3 h8,3,0,2@5a8>hf@4e16e16<
3 @5a16>c16h1,2,0,2d16hfe16<
3 h1,4,0,2@5a8>hf@4e16h2,3,0,1e16<
3 hf@5a8>@4e16e16<
3 h1,2,0,1@5a8>h1,4,0,1@4e16hfe16<
3 h8,3,0,2@5a8>hf@4e16h2,3,0,1e16<
3 h8,3,0,2@5a8>hf@4e16e16<
3 @5a8>@4e16h2,3,0,2e16<
3 h8,3,0,2@5a8>hf@4e16e16<
3 @5a16>c16d16h2,3,0,2e16<
3 hf@5a8>@4e16h2,3,0,1e16<
3 hf@5a8>@4e16e16<
3 @5a8>@4e16h2,3,0,1e16<
3 hf@5a8>@4e16e16<
3 @5a8>@4e16h2,3,0,2e16<
3 hf@5a8>@4e16e16<
3 h1,2,0,2@5a8>h1,4,0,2@4e16hfe16<
3 @5a16>c16d16h1,2,0,2e16<
3 hf@5d8>@4a16h2,3,0,2a16<
3 hf@5d8>@4a16a16<
3 h1,2,0,2@5d8>h1,4,0,2@4a16hfa16<
3 h8,3,0,2@5d8>hf@4b16h2,3,0,1b16<
3 h8,3,0,2@5e8>hf@4b16b16<
3 @5e8>@4b16h2,3,0,1b16<
3 h8,3,0,2@5e8>hf@4b16b16<
3 @5e8>@4b16h2,3,0,1b16<
3 h8,3,0,1@5d8>hf@4a16a16<
3 @5d8>h1,2,0,1@4a16hfa16<
3 h1,4,0,1@5d8>hf@4a16a16<
3 h8,3,0,2@5d8>hf@4b16b16<
3 h8,3,0,2@5e8>hf@4b16b16<
3 @5e8>h1,2,0,2@4b16hfb16<
3 h1,4,0,2@5e8>hf@4b16b16<
3 @5e8>@4b16h1,4,0,2b16<
3 hf@5d8>@4a16h2,3,0,2a16<
3 hf@5d8>@4a16a16<
3 h1,2,0,2@5d8>h1,4,0,2@4a16hfa16<
3 h8,3,0,2@5d8>hf@4b16h2,3,0,1b16<
3 h8,3,0,2@5e8>hf@4b16b16<
3 @5e8>@4b16h2,3,0,1b16<
3 h8,3,0,2@5e8>hf@4b16b16<
3 @5e8>@4b16h2,3,0,2b16<
3 h8,3,0,2@5d8>hf@4a16a16<
3 @5d8>h1,2,0,2@4a16hfa16<
3 h1,4,0,2@5d8>hf@4a16a16<
3 h8,3,0,2@5d8>hf@4b16b16<
3 h8,3,0,1@5e8>hf@4b16b16<
3 @5e8>h1,2,0,1@4b16hfb16<
3 h1,4,0,1@5e8>hf@4b16b16<
3 @5e8>@4b16h1,4,0,1b16<]0

@e0={0,0,c.b.a.9.8.7:4.6}
@e1={0,0,a.9.8:3.7.6:2.5}
@e2={0,0,a.9.8.7.6.5}
@e3={0,0,a.9:2.7.6.5}
@e4={0,0,a.9.8:2.7:2.6:2.5}
@e5={0,0,d.b.a:3.9:3.8:3.7:3.6:3.5:3.4}
@e6={0,0,d.c.b:2.a:2.9:3.8}
@e7={0,0,b.a.9:2.8:2.7:2.6}
@e8={0,0,b.a.9.8.7.6}
@e9={0,0,b.a.9.7:2.5:4.4}
@e10={0,0,9.8.7:2.6:2.5:2.4}
@e11={0,0,9.8.7.6.5.4}
@e12={0,0,9.8:2.6.5.4}
@e13={0,0,b.a.9.7.6.5:4.4}